src/img/channel/channel_38.svg

<svg fill="none" height="88" viewBox="0 0 157 88" width="157" xmlns="http://www.w3.org/2000/svg" xmlns:xlink="http://www.w3.org/1999/xlink"><clipPath id="a"><path d="m0 0h157v88h-157z"/></clipPath><g clip-path="url(#a)" fill="#fff"><path d="m36.1501 24.1711c-12.6707 0-16.5535 7.978-16.5535 12.3908h8.7418c.2978-2.332 2.474-5.0122 8.1081-5.0122 5.736 0 7.9807 3.5968 7.9807 8.1459h-4.2628c-14.2419 0-22.2752 3.9377-22.2752 12.6786 0 6.2416 6.1605 11.7992 14.1664 11.7992 5.041 0 10.4768-2.3942 12.3468-3.9171l.1282 2.9098h8.4701v-21.488c0-10.8201-4.3294-17.507-16.8506-17.507zm5.2963 22.3354h2.8278v2.1504c0 4.4864-4.1417 7.8095-10.4398 7.8095-3.8452 0-6.802-1.1383-6.802-3.8364 0-3.7129 2.6698-6.1235 14.414-6.1235z"/><path d="m57.9688 63.1629v-38.1754h13.671l7.0727 27.7324 7.0798-27.7324h13.6589v38.1754h-8.9149v-27.4972l-7.7793 27.4972h-8.2115l-7.7116-27.4385v27.4385z"/><path d="m131.302 48.842h8.701c-1.29 7.2177-7.772 15.3486-17.968 15.3486-12.845 0-18.489-11.2134-18.489-19.9166 0-11.7956 7.388-20.0765 18.421-20.0765 9.692 0 16.497 7.0946 17.923 15.3029h-8.542c-.997-3.1584-4.059-7.423-9.381-7.423-5.995 0-10.082 6.0199-10.082 12.0139 0 7.1989 4.865 12.1738 10.06 12.1738 4.748 0 8.222-3.7117 9.357-7.4231z"/><path d="m0 0v.663007 87.336993h157v-88zm1.3286 1.32601h154.3424v85.34799h-154.3424z"/></g></svg>

<svg width="157" height="88" viewBox="0 0 157 88" fill="none" xmlns="http://www.w3.org/2000/svg">
<g clip-path="url(#clip0)">
<path d="M36.1501 24.1711C23.4794 24.1711 19.5966 32.1491 19.5966 36.5619H28.3384C28.6362 34.2299 30.8124 31.5497 36.4465 31.5497C42.1825 31.5497 44.4272 35.1465 44.4272 39.6956H40.1644C25.9225 39.6956 17.8892 43.6333 17.8892 52.3742C17.8892 58.6158 24.0497 64.1734 32.0556 64.1734C37.0966 64.1734 42.5324 61.7792 44.4024 60.2563L44.5306 63.1661H53.0007V41.6781C53.0007 30.858 48.6713 24.1711 36.1501 24.1711ZM41.4464 46.5065H44.2742V48.6569C44.2742 53.1433 40.1325 56.4664 33.8344 56.4664C29.9892 56.4664 27.0324 55.3281 27.0324 52.63C27.0324 48.9171 29.7022 46.5065 41.4464 46.5065Z" fill="white"/>
<path d="M57.9688 63.1629V24.9875H71.6398L78.7125 52.7199L85.7923 24.9875H99.4512V63.1629H90.5363V35.6657L82.757 63.1629H74.5455L66.8339 35.7244V63.1629H57.9688Z" fill="white"/>
<path d="M131.302 48.842H140.003C138.713 56.0597 132.231 64.1906 122.035 64.1906C109.19 64.1906 103.546 52.9772 103.546 44.274C103.546 32.4784 110.934 24.1975 121.967 24.1975C131.659 24.1975 138.464 31.2921 139.89 39.5004H131.348C130.351 36.342 127.289 32.0774 121.967 32.0774C115.972 32.0774 111.885 38.0973 111.885 44.0913C111.885 51.2902 116.75 56.2651 121.945 56.2651C126.693 56.2651 130.167 52.5534 131.302 48.842Z" fill="white"/>
<path d="M0 0V0.663007V88H157V0H0ZM1.3286 1.32601H155.671V86.674H1.3286V1.32601Z" fill="white"/>
</g>
<defs>
<clipPath id="clip0">
<rect width="157" height="88" fill="white"/>
</clipPath>
</defs>
</svg>
